X:177
T:Conquering Hero. JGi.177
M:C|
L:1/8
Q:1/4=130
S:Joshua Gibbons MS,1823,Tealby,Lincs.
N:From Handel’s “Judas Maccabeus”
R:march
O:Tealby,Lincolnshire
Z:VMP/R.Greig, 2009
K:C
g4e3f|g4c4|cefgf2e2|d8|efgag2g2|c’6g2|f2ef d3c|c8:|
edefe2e2|d4c4|(f2e2)(d2c2)|B6B2|cBcdc2c2|a4f4|g2agf3g|g8|
g4e3f|g4c4|defgf2e2|d6ef|gfgag2g2|c’4g4|(f2e2)d3c|c8|]

